X:15
T: Davenport March
C: Norman Blake
S: From "Full Moon on the Farm"
S: MandoZine TablEdit Archives
Z: Transcribed by Mark Dixon for MandoZine
Z: TablEdited by Kim Davis & Mike Stangeland for MandoZine
L: 1/8
Q: 460
M: 4/4
K: G
 z4 "Introduction"[DG,]B [gB][gB] | ge dg ed ^Ad | AG z2 GA ^Ad | ^A=A GD EG BG | AF G4 [g2B2G2] |
 "G"eg gg gg gg | ge dB AG ED | eg gg gg gg | "D"ed dB d3D |
 "G"eg gb g2 ga | ge dB AG EF | GB AG EF GA | BG AF G2 [g2B2G2] |
 eg g2 g2 gg | ge dB AG G2 | eg gg gg gg | ed [d2F2D2] [d4F4D4] |
 gb ge g^a ge | dB GA GE FG | BA GE FG zA | BG AF G2 [g2B2G2] |
 dB GA ^A=A GA | d^A B=A GE DG | BA GE FG AB | GA FG [g4B4G4] |
 dB GA ^A=A GA | d^A B=A GE DG | BA GE FG zA | BG FA G2 [g2B2G2] |
 dB BA GE FG | BA GE FG ED | FG DE FG DF | GA FG [g4B4G4] |
 d2 BA GE D2 | GB AG ED EF | GD EG DF GA | BG AF G2 [g2B2G2] ||
